!!!COM: Music21
!!!OTL: Valse Antigo
!!!OMV: pezas_valses_valse-antigo_valse-antigo-partitura.musicxml
**kern
*part1
*staff1
*I"Bagpipes
*I'Bag
*clefG^2
*k[]
*M3/4
=1
!LO:TX:a:t=Prestissimo
*MM213
!LO:TX:a:t=[quarter]=213
4bb
4ccc
4bb
=
2gg
4gg
=
4gg
4ff
4gg
=
2.aa
=
4bb
4ccc
4bb
=
2ff
4ff
=
4ff
4ee
4ff
=
2.gg
=||
*M3/4
!LO:TX:a:t=Prestissimo
*MM213
!LO:TX:a:t=[quarter]=213
4bb
4ccc
4bb
=
2gg
4gg
!!linebreak:original
=
4gg
4ff
4gg
=
2.aa
=
4bb
4ccc
4bb
=
2ff
4ff
=
4ff
4ee
4ff
=
[2.gg
=
2gg]
4ee
=||
4bb
8aaL
8bbJ
8cccL
8bbJ
=
4bb
4gg
4ee
!!linebreak:original
=
4gg
8ffL
8ggJ
8aaL
8ggJ
=
2ff
4aa
=
4aa
8ggL
8aaJ
8bbL
8aaJ
=
4gg
8ffL
8ggJ
8aaL
8ggJ
=
4ff
8eeL
8ffJ
8ggL
8aaJ
=
2bb
4bb
=||
4bb
8aaL
8bbJ
8cccL
8bbJ
=
4bb
4gg
4ee
!!linebreak:original
=
4gg
8ffL
8ggJ
8aaL
8ggJ
=
2ff
4aa
=
4aa
8ggL
8aaJ
8bbL
8aaJ
=
4gg
8ffL
8ggJ
8aaL
8ggJ
=
4ff
8eeL
8ffJ
8ggL
8ffJ
=
[2.ee
=
2.ee]
==
*-
!!!system-decoration: s1,s2
